X:191 
T:Silver Slipper Reel, The 
F:file ID: cre.5/191silv_s
B:CRE5.159 (RÃÂÃÂÃÂÃÂ­l an tSlipÃÂÃÂÃÂÃÂ©ir Airgid)
M:4/4
Q:180
R:reel
K:D
de|fd~d2 BdAd|fd~d2 eAde|fd~d2 BdAF|GEAG FDDe|
fdd2 BdAF|fdcd e2de|fdcd BdAF|GBAG FDD||
E|F3A BAA2|FAAF GE~E2|FA~A2 BdAF|GBAG FDDE|
FA~A2 FA~A2|FAAF GE~E2|FA~A2 BdAF|\
G2AG FDD2|]

%%%

